X: 1
T: Phil The Fluter's Ball
M: 4/4
L: 1/8
R: hornpipe
K: Dmaj
F3/2E| D2 D3/2D/2 d2 d3/2c/2 | B3/2A<Bc< dd<dd/2 |D3/2D<DD <dd<dB/2 |
A3/2B<AF< EE<FE/2 |D2 D2 d2 d2| B3/2A<Bc/2 d2 d3/2e/2 |
f3/2d<ec <dc<BA/2| B3/2d<ce/2 d2 d3/2e/2 |f2 f3/2d/2 e2 e3/2c/2|
d3/2e<dB <AF<DA/2 |f2 f3/2d/2 e2 e3/2c/2 | d3/2c<Be/2 A2 d3/2e/2 |
f2 f3/2d/2 e2 e3/2c/2 | d3/2e<dB <AF<DF/2 |A3/2B<AF <de<dB/2 |
A3/2B<AF/2 E2 F3/2E/2 |D2 D3/2D/2 d2 d3/2c/2 | B3/2A<Bc< dd<dd/2 |
D3/2D<DD <dd<dB/2 | A3/2B<AF< EE<FE/2 |D2 D2 d2 d2|
B3/2A<Bc/2 d2 d3/2e/2 |f3/2d<ec <dc<BA/2| B3/2d<ce/2 d2 z2|
